_site/images/homepage/puzzle.svg

<svg fill="none" height="30" viewBox="0 0 30 30" width="30" xmlns="http://www.w3.org/2000/svg"><rect fill="#ffc634" height="30" rx="7" width="30"/><g fill="#fff" stroke="#fff"><path d="m14.6177 20.6943c0 .0125-.0025.0248-.0073.0358-.0051.0117-.0125.0222-.0212.0302-.1136.1038-.2142.2219-.2988.3508-.0793.1206-.0477.2839.0703.3648.044.0301.0939.0446.1431.0446.083 0 .1644-.0409.214-.1164.0609-.0926.1331-.1775.2148-.2521.0629-.0577.1126-.1272.1475-.2067.0343-.078.0524-.1648.0524-.251 0-.3396-.2704-.6159-.6029-.6159h-3.373c-.1573 0-.2853-.1307-.2853-.2914v-3.4226c0-.1706-.0649-.3308-.1828-.4512-.1181-.1206-.2751-.1871-.4421-.1871-.1759 0-.34509.0769-.46408.211-.24676.2778-.59844.4371-.96487.4371-.36634 0-.70548-.1511-.95486-.4254-.2492-.2741-.37136-.6318-.3441-1.0072.04785-.655.56797-1.1815 1.20977-1.2248.40138-.027.78551.1313 1.05392.434.05841.0661.12859.1183.2092.1555.10892.0499.22952.0667.34862.0485.3029-.0462.5313-.3227.5313-.6432v-3.4105c0-.1607.128-.2914.2853-.2914h3.351c.3445 0 .6249-.28638.6249-.63833v-.05572c0-.17912-.0752-.35177-.2067-.47419-.2719-.25164-.4278-.6108-.4278-.98535 0-.37424.1479-.72064.4166-.97531.2683-.25443.6185-.37905.9861-.35107.6411.04855 1.1566.57983 1.1991 1.23567.0264.40978-.1286.80223-.4253 1.0768-.1312.12147-.2064.29401-.2064.47342v.05572c0 .35195.2804.63826.6249.63826h.8051c.1421 0 .2574-.11767.2574-.26286 0-.1452-.1152-.2629-.2574-.2629h-.8051c-.0607 0-.1101-.05048-.1101-.1125v-.05572c0-.03133.0136-.06191.0373-.08385.4138-.38292.6301-.92999.5932-1.501-.0592-.91582-.7792-1.65758-1.6745-1.72536-.5119-.03913-1 .135-1.3745.49001-.3694.35015-.5812.8461-.5812 1.36065 0 .52267.2176 1.02382.5964 1.3745.0243.02254.0381.05351.0381.08505v.05572c0 .06205-.0494.1125-.1101.1125h-3.351c-.4411 0-.8.36657-.8.81716v3.4105c0 .0612-.0407.1153-.0926.1233-.0218.0033-.0427.0005-.0612-.008-.015-.0069-.028-.0164-.0388-.0287-.37483-.4227-.91028-.6435-1.46954-.606-.89623.0605-1.62247.7958-1.68924 1.7105-.038.5229.13252 1.0215.4802 1.4039.34282.3772.82835.5935 1.33206.5935.51131 0 1.00194-.2222 1.34612-.6097.0217-.0244.0519-.0384.0828-.0384.0399 0 .0661.0207.0782.0331.012.0122.032.0387.032.0794v3.4226c0 .4506.3589.8172.8.8172h3.373c.0486 0 .0881.0404.0881.0901z"/><path d="m20.6152 13.0376c.3641-.0802.6283-.4157.6283-.7979v-1.9386c0-.45064-.3589-.81721-.8001-.81721h-1.3483c-.1422 0-.2574.1177-.2574.2629 0 .14519.1152.26291.2574.26291h1.3483c.1573 0 .2853.1307.2853.2914v1.9386c0 .1362-.0933.2556-.2219.2839-1.0355.2279-1.787 1.1796-1.787 2.2629 0 1.0832.7515 2.0347 1.787 2.2625.1286.0283.2219.1477.2219.2839v2.4542c0 .1607-.1279.2914-.2853.2914h-3.3729c-.161 0-.3124.064-.4263.1804-.1139.1163-.1767.2709-.1767.4354 0 .1746.0732.3416.2007.4584.2757.2522.4339.6134.4339.991 0 .3689-.1519.7246-.4168.9756-.2683.2544-.6182.379-.9858.3511-.5806-.0443-1.0649-.4838-1.1778-1.0688-.0275-.1424-.1628-.2352-.3023-.2071-.1394.0281-.2302.1663-.2028.3088.1575.8163.8337 1.4296 1.6446 1.4914.0472.0036.0941.0054.1408.0054.46 0 .8935-.1732 1.2335-.4954.3694-.3503.5813-.8463.5813-1.361 0-.5269-.2206-1.0308-.6051-1.3826-.0187-.0171-.0294-.0415-.0294-.0668 0-.0324.0162-.0538.0259-.0636.0096-.0099.0306-.0265.0623-.0265h3.3729c.4412 0 .8001-.3665.8001-.8171v-2.4542c0-.3822-.2642-.7178-.6283-.7979-.8-.176-1.3806-.9114-1.3806-1.7486 0-.8373.5806-1.5728 1.3806-1.7488z"/></g></svg>

<svg width="30" height="30" viewBox="0 0 30 30" fill="none" xmlns="http://www.w3.org/2000/svg">
<rect width="30" height="30" rx="7" fill="#FFC634"/>
<path d="M14.6177 20.6943C14.6177 20.7068 14.6152 20.7191 14.6104 20.7301C14.6053 20.7418 14.5979 20.7523 14.5892 20.7603C14.4756 20.8641 14.375 20.9822 14.2904 21.1111C14.2111 21.2317 14.2427 21.395 14.3607 21.4759C14.4047 21.506 14.4546 21.5205 14.5038 21.5205C14.5868 21.5205 14.6682 21.4796 14.7178 21.4041C14.7787 21.3115 14.8509 21.2266 14.9326 21.152C14.9955 21.0943 15.0452 21.0248 15.0801 20.9453C15.1144 20.8673 15.1325 20.7805 15.1325 20.6943C15.1325 20.3547 14.8621 20.0784 14.5296 20.0784H11.1566C10.9993 20.0784 10.8713 19.9477 10.8713 19.787V16.3644C10.8713 16.1938 10.8064 16.0336 10.6885 15.9132C10.5704 15.7926 10.4134 15.7261 10.2464 15.7261C10.0705 15.7261 9.90131 15.803 9.78232 15.9371C9.53556 16.2149 9.18388 16.3742 8.81745 16.3742C8.45111 16.3742 8.11197 16.2231 7.86259 15.9488C7.61339 15.6747 7.49123 15.317 7.51849 14.9416C7.56634 14.2866 8.08646 13.7601 8.72826 13.7168C9.12964 13.6898 9.51377 13.8481 9.78218 14.1508C9.84059 14.2169 9.91077 14.2691 9.99138 14.3063C10.1003 14.3562 10.2209 14.373 10.34 14.3548C10.6429 14.3086 10.8713 14.0321 10.8713 13.7116V10.3011C10.8713 10.1404 10.9993 10.0097 11.1566 10.0097H14.5076C14.8521 10.0097 15.1325 9.72332 15.1325 9.37137V9.31565C15.1325 9.13653 15.0573 8.96388 14.9258 8.84146C14.6539 8.58982 14.498 8.23066 14.498 7.85611C14.498 7.48187 14.6459 7.13547 14.9146 6.8808C15.1829 6.62637 15.5331 6.50175 15.9007 6.52973C16.5418 6.57828 17.0573 7.10956 17.0998 7.7654C17.1262 8.17518 16.9712 8.56763 16.6745 8.8422C16.5433 8.96367 16.4681 9.13621 16.4681 9.31562V9.37134C16.4681 9.72329 16.7485 10.0096 17.093 10.0096H17.8981C18.0402 10.0096 18.1555 9.89193 18.1555 9.74674C18.1555 9.60154 18.0403 9.48384 17.8981 9.48384H17.093C17.0323 9.48384 16.9829 9.43336 16.9829 9.37134V9.31562C16.9829 9.28429 16.9965 9.25371 17.0202 9.23177C17.434 8.84885 17.6503 8.30178 17.6134 7.73077C17.5542 6.81495 16.8342 6.07319 15.9389 6.00541C15.427 5.96628 14.9389 6.14041 14.5644 6.49542C14.195 6.84557 13.9832 7.34152 13.9832 7.85607C13.9832 8.37874 14.2008 8.87989 14.5796 9.23057C14.6039 9.25311 14.6177 9.28408 14.6177 9.31562V9.37134C14.6177 9.43339 14.5683 9.48384 14.5076 9.48384H11.1566C10.7155 9.48384 10.3566 9.85041 10.3566 10.301V13.7115C10.3566 13.7727 10.3159 13.8268 10.264 13.8348C10.2422 13.8381 10.2213 13.8353 10.2028 13.8268C10.1878 13.8199 10.1748 13.8104 10.164 13.7981C9.78917 13.3754 9.25372 13.1546 8.69446 13.1921C7.79823 13.2526 7.07199 13.9879 7.00522 14.9026C6.96722 15.4255 7.13774 15.9241 7.48542 16.3065C7.82824 16.6837 8.31377 16.9 8.81748 16.9C9.32879 16.9 9.81942 16.6778 10.1636 16.2903C10.1853 16.2659 10.2155 16.2519 10.2464 16.2519C10.2863 16.2519 10.3125 16.2726 10.3246 16.285C10.3366 16.2972 10.3566 16.3237 10.3566 16.3644V19.787C10.3566 20.2376 10.7155 20.6042 11.1566 20.6042H14.5296C14.5782 20.6042 14.6177 20.6446 14.6177 20.6943Z" fill="white" stroke="white"/>
<path d="M20.6152 13.0376C20.9793 12.9574 21.2435 12.6219 21.2435 12.2397V10.3011C21.2435 9.85046 20.8846 9.48389 20.4434 9.48389H19.0951C18.9529 9.48389 18.8377 9.60159 18.8377 9.74679C18.8377 9.89198 18.9529 10.0097 19.0951 10.0097H20.4434C20.6007 10.0097 20.7287 10.1404 20.7287 10.3011V12.2397C20.7287 12.3759 20.6354 12.4953 20.5068 12.5236C19.4713 12.7515 18.7198 13.7032 18.7198 14.7865C18.7198 15.8697 19.4713 16.8212 20.5068 17.049C20.6354 17.0773 20.7287 17.1967 20.7287 17.3329V19.7871C20.7287 19.9478 20.6008 20.0785 20.4434 20.0785H17.0705C16.9095 20.0785 16.7581 20.1425 16.6442 20.2589C16.5303 20.3752 16.4675 20.5298 16.4675 20.6943C16.4675 20.8689 16.5407 21.0359 16.6682 21.1527C16.9439 21.4049 17.1021 21.7661 17.1021 22.1437C17.1021 22.5126 16.9502 22.8683 16.6853 23.1193C16.417 23.3737 16.0671 23.4983 15.6995 23.4704C15.1189 23.4261 14.6346 22.9866 14.5217 22.4016C14.4942 22.2592 14.3589 22.1664 14.2194 22.1945C14.08 22.2226 13.9892 22.3608 14.0166 22.5033C14.1741 23.3196 14.8503 23.9329 15.6612 23.9947C15.7084 23.9983 15.7553 24.0001 15.802 24.0001C16.262 24.0001 16.6955 23.8269 17.0355 23.5047C17.4049 23.1544 17.6168 22.6584 17.6168 22.1437C17.6168 21.6168 17.3962 21.1129 17.0117 20.7611C16.993 20.744 16.9823 20.7196 16.9823 20.6943C16.9823 20.6619 16.9985 20.6405 17.0082 20.6307C17.0178 20.6208 17.0388 20.6042 17.0705 20.6042H20.4434C20.8846 20.6042 21.2435 20.2377 21.2435 19.7871V17.3329C21.2435 16.9507 20.9793 16.6151 20.6152 16.535C19.8152 16.359 19.2346 15.6236 19.2346 14.7864C19.2346 13.9491 19.8152 13.2136 20.6152 13.0376Z" fill="white" stroke="white"/>
</svg>
